X: 802
T: The shaskeen reel
C: anon.
O: Ireland
B: Francis O'Neill: "The Dance Music of Ireland" (1907) no. 802
R: Reel
Z: Transcribed by Frank Nordberg - http://www.musicaviva.com
F: http://www.musicaviva.com/abc/tunes/ireland/oneill-1001/oneill-1001-080
2.abc
m: Tn = (3n/o/n/
M: C|
L: 1/8
K: G
DE|G3B A2Ac|dged cAAc|BdBG (3ABc AF|GBAG FDEF|(TGFG)B A2 (3ABc|dged cAAg|
Tfefa ecAc|BGAF G2||
Bc|dg({a}g)f g2fg|abag fddc|BcBG (3ABc AF|GBAG FDD2|dg({a}g)f g2fg|abag f
dde|Tfefa ecAc|BGAF G2|]
W:
W:
W: From Musica Viva - http://www.musicaviva.com
W: the Internet center for free sheet music downloads.


